X:1
T:Ode to Joy
M:4/4
L:1/4
K:C
V:1
C C D E | E D C D | E E F G | G F E D |
C C D E | E D C D | E E F G | G F E D |
C2 G, A, B, | c2 A G F | E D C D | E2 G F E | D2 C2 C2 |]
